X:193
T:Don Side
R:Strathspey
B:The Athole Collection
M:C
L:1/8
K:G
A|G/G/G B>G A>G E<A|G/G/G B>G A>GB>G|c>AB>G A>GE>e|
d>cB>A B<GG:|
|:f|g>dg>B A>GE>e|g>dg>B ~g>dg>a|b/a/g/f/ g>B A>G E<e|
d>cB>A B<GG:|

